www/assets/icons/spatial_tracking.svg

<svg width="24" height="24" viewBox="0 0 24 24" xmlns="http://www.w3.org/2000/svg" fill='currentColor'><path d="M9.56006 14C11.7692 14 13.5601 12.2091 13.5601 10C13.5601 7.79086 11.7692 6 9.56006 6C7.35092 6 5.56006 7.79086 5.56006 10C5.56006 12.2091 7.35092 14 9.56006 14Z"/><path d="M15.9501 16.56C14.2701 15.7 12.0901 15 9.56006 15C7.03006 15 4.85006 15.7 3.17006 16.56C2.17006 17.07 1.56006 18.1 1.56006 19.22V22H17.5601V19.22C17.5601 18.1 16.9501 17.07 15.9501 16.56Z"/><path d="M19.6101 3.41L18.2001 2C14.6901 5.51 14.6901 11.21 18.2001 14.73L19.6101 13.32C16.8801 10.58 16.8801 6.14 19.6101 3.41Z"/><path d="M22.4401 6.24L21.0301 4.83C19.0801 6.78 19.0801 9.95 21.0301 11.9L22.4401 10.49C21.2701 9.32 21.2701 7.41 22.4401 6.24Z"/></svg>

<svg xmlns="http://www.w3.org/2000/svg" width="24" height="24" viewBox="0 0 24 24" fill='currentColor'><path d="M9.56 14a4 4 0 1 0 0-8 4 4 0 0 0 0 8m6.39 2.56C14.27 15.7 12.09 15 9.56 15s-4.71.7-6.39 1.56a2.97 2.97 0 0 0-1.61 2.66V22h16v-2.78c0-1.12-.61-2.15-1.61-2.66m3.66-13.15L18.2 2c-3.51 3.51-3.51 9.21 0 12.73l1.41-1.41c-2.73-2.74-2.73-7.18 0-9.91"/><path d="m22.44 6.24-1.41-1.41a5.003 5.003 0 0 0 0 7.07l1.41-1.41a3.01 3.01 0 0 1 0-4.25"/></svg>
